X:5417
T:Rainy Day, The
O:england
R:reel
N:See also #482
D:Mary Bergin: Feadoga Stain
D:Bothy Band: 1975
M:C|
K:Ador
EAAG ~A3G|(3Bcd ed gedc|BGGF G2dG|~G2dG eGdG|
EAAG ~A3B|cBAB cdef|~g3e dBGA|1 BGdB A2AG:|2 BGdB A2Bd||
|:eaag ~a3g|ba~a2 bgag|eggf ~g3a|bg~g2 bgag|
eaag aged|(3Bcd ef g2ag|eaag (3efg dG|1 AGdB A2Bd:|2 AGdB ~A3G||
"Variations of 1st part"
|:EAAG ~A3G|(3Bcd ed gedc|BGGF G2dG|~G2dG EGdG|
EAAG ~A3G|BA~A2 (3Bcd ef|geaf gedB|1 GBdB BAAG:|2 GBdB BA~A2||


